public/cards/9_red.svg

<svg width="242" height="362" viewBox="0 0 242 362" fill="none" xmlns="http://www.w3.org/2000/svg">
<path d="M201 1H41C18.9086 1 1 18.9086 1 41V321C1 343.091 18.9086 361 41 361H201C223.091 361 241 343.091 241 321V41C241 18.9086 223.091 1 201 1Z" fill="white" stroke="black" stroke-width="2"/>
<path d="M201 21H41C29.9543 21 21 29.9543 21 41V321C21 332.046 29.9543 341 41 341H201C212.046 341 221 332.046 221 321V41C221 29.9543 212.046 21 201 21Z" fill="#E80000"/>
<path fill-rule="evenodd" clip-rule="evenodd" d="M181 81C92.6344 81 21 152.634 21 241C21 263.091 38.9086 281 61 281C149.366 281 221 209.366 221 121C221 98.9086 203.091 81 181 81Z" fill="white"/>
<path fill-rule="evenodd" clip-rule="evenodd" d="M121 121C98.9086 121 81 138.909 81 161C81 183.091 98.9086 201 121 201C128.268 201 135.126 199.013 141 195.625V201C141 212.046 132.046 221 121 221C113.183 221 106.54 216.412 103.25 209.875L85.25 218.875C91.8071 232.012 105.319 241 121 241C143.091 241 161 223.091 161 201V161C161 138.909 143.091 121 121 121ZM121 141C132.046 141 141 149.954 141 161C141 172.046 132.046 181 121 181C109.954 181 101 172.046 101 161C101 149.954 109.954 141 121 141ZM101 245V253H141V245H101Z" fill="#E80000"/>
<path fill-rule="evenodd" clip-rule="evenodd" d="M51 91C62.0457 91 71 82.0457 71 71V51C71 39.9543 62.0457 31 51 31C39.9543 31 31 39.9543 31 51C31 62.0456 39.9543 71 51 71C54.634 71 58.0632 70.0065 61 68.3125V71C61 76.5228 56.5228 81 51 81C47.0915 81 43.7698 78.7059 42.125 75.4375L33.125 79.9375C36.4035 86.5062 43.1595 91 51 91ZM51 61C45.4772 61 41 56.5228 41 51C41 45.4772 45.4772 41 51 41C56.5228 41 61 45.4772 61 51C61 56.5228 56.5228 61 51 61Z" fill="white"/>
<path fill-rule="evenodd" clip-rule="evenodd" d="M191 271C179.954 271 171 279.954 171 291V311C171 322.046 179.954 331 191 331C202.046 331 211 322.046 211 311C211 299.954 202.046 291 191 291C187.366 291 183.937 291.993 181 293.687V291C181 285.477 185.477 281 191 281C194.908 281 198.23 283.294 199.875 286.562L208.875 282.062C205.597 275.494 198.84 271 191 271ZM191 301C196.523 301 201 305.477 201 311C201 316.523 196.523 321 191 321C185.477 321 181 316.523 181 311C181 305.477 185.477 301 191 301Z" fill="white"/>
</svg>

<svg xmlns="http://www.w3.org/2000/svg" width="242" height="362" fill="none"><path fill="#fff" stroke="#000" stroke-width="2" d="M201 1H41C18.909 1 1 18.909 1 41v280c0 22.091 17.909 40 40 40h160c22.091 0 40-17.909 40-40V41c0-22.091-17.909-40-40-40Z"/><path fill="#E80000" d="M201 21H41c-11.046 0-20 8.954-20 20v280c0 11.046 8.954 20 20 20h160c11.046 0 20-8.954 20-20V41c0-11.046-8.954-20-20-20Z"/><path fill="#fff" fill-rule="evenodd" d="M181 81C92.634 81 21 152.634 21 241c0 22.091 17.909 40 40 40 88.366 0 160-71.634 160-160 0-22.091-17.909-40-40-40Z" clip-rule="evenodd"/><path fill="#E80000" fill-rule="evenodd" d="M121 121c-22.091 0-40 17.909-40 40s17.909 40 40 40a40.014 40.014 0 0 0 20-5.375V201c0 11.046-8.954 20-20 20-7.817 0-14.46-4.588-17.75-11.125l-18 9C91.807 232.012 105.319 241 121 241c22.091 0 40-17.909 40-40v-40c0-22.091-17.909-40-40-40Zm0 20c11.046 0 20 8.954 20 20s-8.954 20-20 20-20-8.954-20-20 8.954-20 20-20Zm-20 104v8h40v-8h-40Z" clip-rule="evenodd"/><path fill="#fff" fill-rule="evenodd" d="M51 91c11.046 0 20-8.954 20-20V51c0-11.046-8.954-20-20-20s-20 8.954-20 20 8.954 20 20 20c3.634 0 7.063-.993 10-2.688V71c0 5.523-4.477 10-10 10-3.908 0-7.23-2.294-8.875-5.563l-9 4.5C36.404 86.507 43.16 91 51 91Zm0-30c-5.523 0-10-4.477-10-10s4.477-10 10-10 10 4.477 10 10-4.477 10-10 10Zm140 210c-11.046 0-20 8.954-20 20v20c0 11.046 8.954 20 20 20s20-8.954 20-20-8.954-20-20-20c-3.634 0-7.063.993-10 2.687V291c0-5.523 4.477-10 10-10 3.908 0 7.23 2.294 8.875 5.562l9-4.5C205.597 275.494 198.84 271 191 271Zm0 30c5.523 0 10 4.477 10 10s-4.477 10-10 10-10-4.477-10-10 4.477-10 10-10Z" clip-rule="evenodd"/></svg>
